X:1
T:[ID 2-9]
T:[ID 2-9]
T:Bezeichnung standardisiert: Menuet [mit Trio] Men: Con Trio
T:Urheber unbekannt Erstbeleg: 1767 (Datum in der schriftlichen Quelle) Datum in der hier transkribierten schriftlichen Quelle: 1773
C:Urheber unbekannt
C:Erstbeleg: 1767 (Datum in der schriftlichen Quelle)
C:Datum in der hier transkribierten schriftlichen Quelle: 1773
%%score 1 2
L:1/8
M:3/4
K:D
V:1 treble 
V:2 treble 
V:1
 (3abc' | d'2 d'2 af | d4 (3ABc | d2 d2 AF | D4 DE | =F2 FAGB | A2 A^G A2 | BdcBA^G | A4 :: %9
 (3ef^g | a2 a2 ec | A4 f2 | gfgefd | c2 Bc A2 | B2 Bgfe | B2 Bgfe | BG F2 E2 | D6 :| %18
[K:Dmin][M:3/4]"^Trio" !fermata!D2 F2 A2 | d3 efg | a2 b2 d2 | T^c4 A2 | F2 A2 c2 | fg a2 c2 | %24
 Bc A2 G2 | F6 :: a4 ba | g2 e2 f2 | g2 g_bag | f2 d2 e2 | f2 e2 d2 | ^cdec d2 | =BG ^F2 E2 | D6 :| %34
V:2
 (3!fermata!fga | f2 f2 fd | f4 (3FGA | F2 F2 FA | D4 DE | =F2 FAGG | A2 A^G A2 | BdcBA^G | A4 :: %9
 (3cde | c2 c2 cA | c4 d2 | edecdB | A2 G2 F2 | G2 Gedc | d2 A2 F2 | GE D2 C2 | D4 x2 :| %18
[K:Dmin][M:3/4] F2 D2 FA | d3 ^cde | f2 g2 B2 | ABAGFE | F2 F2 A2 | de f2 A2 | GA F2 E2 | F6 :: %26
 f4 gf | e2 ^c2 d2 | e2 egfe | d2 F2 A2 | d2 c2 d2 | ed^cA ^F2 | GE D2 ^C2 | D6 :| %34

